Obsidian/status/22s/weather-clouds.svg

<svg height="22" width="22" xmlns="http://www.w3.org/2000/svg"><path d="m10 3.0019531-.5 1.03125c.16191-.0133.3348-.03125.5-.03125h.5zm0 2c-2.76142 0-5 2.23859-5 4.9999999 0 .46958.0786899.917123.2011719 1.345703.514915-.53202 1.1711055-.930957 1.9140625-1.123047.82344-1.4053596 2.2402159-2.4414059 3.9824216-2.4414059 1.642432 0 3.059043.8623444 3.898438 2.1464844-.03919-2.72762-2.259146-4.9277344-4.996094-4.9277344zm-4.9375.0625.34375 1.0625c.21905-.25922.45953-.4997.71875-.71875zm9.875 0-1.09375.375h-.0625c.13917.11095.27498.22511.40625.34375s.25799.24175.375.375zm-3.839844 3.71875c-1.5533027 0-2.8760323.950935-3.4453122 2.2968749-1.4458721.21495-2.5546876 1.447445-2.5546876 2.953125 0 1.65686 1.343145 3 3 3h6.3749998c1.44975 0 2.625-1.17525 2.625-2.625 0-1.3474-1.013092-2.451522-2.320312-2.601562-.340927-1.72004-1.859536-3.0234379-3.679688-3.0234379zm-7.097656.71875-1 .4999999 1.03125.5c-.0148-.16931-.03125-.3264-.03125-.5 0-.0274999-.002-.0835999 0-.1562499.006-.11583.02235-.23224.03125-.34375zm11.96875 0c.0148.16931.03125.3264.03125.4999999 0 .0275.002.0836 0 .15625-.006.11583-.02235.23224-.03125.34375h.03125l1-.5z" fill="#d3dae3"/></svg>

<svg xmlns="http://www.w3.org/2000/svg" width="22" height="22" version="1.1">
 <defs>
  <style id="current-color-scheme" type="text/css">
   .ColorScheme-Text { color:#d3dae3; } .ColorScheme-Highlight { color:#5294e2; }
  </style>
 </defs>
 <g transform="translate(-57.000007,-681.28997)">
  <path style="fill:currentColor" class="ColorScheme-Text" d="M 10 3.0019531 L 9.5 4.0332031 C 9.66191 4.0199031 9.8348 4.0019531 10 4.0019531 L 10.5 4.0019531 L 10 3.0019531 z M 10 5.0019531 C 7.23858 5.0019531 5 7.2405431 5 10.001953 C 5 10.471533 5.0786899 10.919076 5.2011719 11.347656 C 5.7160869 10.815636 6.3722774 10.416699 7.1152344 10.224609 C 7.9386744 8.8192494 9.3554503 7.7832031 11.097656 7.7832031 C 12.740088 7.7832031 14.156699 8.6455475 14.996094 9.9296875 C 14.956904 7.2020675 12.736948 5.0019531 10 5.0019531 z M 5.0625 5.0644531 L 5.40625 6.1269531 C 5.6253 5.8677331 5.86578 5.6272531 6.125 5.4082031 L 5.0625 5.0644531 z M 14.9375 5.0644531 L 13.84375 5.4394531 L 13.78125 5.4394531 C 13.92042 5.5504031 14.05623 5.6645631 14.1875 5.7832031 C 14.31877 5.9018431 14.44549 6.0249531 14.5625 6.1582031 L 14.9375 5.0644531 z M 11.097656 8.7832031 C 9.5443533 8.7832031 8.2216237 9.7341381 7.6523438 11.080078 C 6.2064717 11.295028 5.0976562 12.527523 5.0976562 14.033203 C 5.0976562 15.690063 6.4408012 17.033203 8.0976562 17.033203 L 14.472656 17.033203 C 15.922406 17.033203 17.097656 15.857953 17.097656 14.408203 C 17.097656 13.060803 16.084564 11.956681 14.777344 11.806641 C 14.436417 10.086601 12.917808 8.7832031 11.097656 8.7832031 z M 4 9.5019531 L 3 10.001953 L 4.03125 10.501953 C 4.01645 10.332643 4 10.175553 4 10.001953 C 4 9.9744531 3.998 9.9183531 4 9.8457031 C 4.006 9.7298731 4.02235 9.6134631 4.03125 9.5019531 L 4 9.5019531 z M 15.96875 9.5019531 C 15.98355 9.6712631 16 9.8283531 16 10.001953 C 16 10.029453 16.002 10.085553 16 10.158203 C 15.994 10.274033 15.97765 10.390443 15.96875 10.501953 L 16 10.501953 L 17 10.001953 L 15.96875 9.5019531 z" transform="translate(57.000007,681.28997)"/>
 </g>
</svg>
